format-header-3.svg

<svg fill="currentColor" viewBox="0 0 24 24"><path d="M3 4h2v6h4V4h2v14H9v-6H5v6H3zm12 0h4a2 2 0 0 1 2 2v10a2 2 0 0 1-2 2h-4a2 2 0 0 1-2-2v-1h2v1h4v-4h-4v-2h4V6h-4v1h-2V6a2 2 0 0 1 2-2"/></svg>

<svg  viewBox="0 0 24 24" fill="currentColor"><path  d="M3,4H5V10H9V4H11V18H9V12H5V18H3V4M15,4H19A2,2 0 0,1 21,6V16A2,2 0 0,1 19,18H15A2,2 0 0,1 13,16V15H15V16H19V12H15V10H19V6H15V7H13V6A2,2 0 0,1 15,4Z"/></svg>
